X:106
T:Polska fr{\aa}n Sm{\aa}land
R:sl-polska
H:jfr nr 26
A:Sm{\aa}land
Z:id:hn-sp-106
Z:Svl Sml 156 efter J Dahl, Skatel\"ov
M:3/4
L:1/16
K:Am
e2eB c2cA B2B^G | E2E^G A2AB cBcd | e2eB c2cA B2B^G | E^GBG B2A2 A2z2 :|
|: ABcd e2e2 c4 | c2e2 f2ef d4 | dBGB dBGB dBGB | cBcd e2e2 e2e2 |
e2eB c2cA B2B^G | E2E^G A2AB cBcd | e2eB c2cA B2B^G | E^GBG B2A2 A2z2 :|
"variation"
|: e2eB c2cA B2B^G | E2E^G AGAB cBcd | e2eB c2cA B2B^G | E^GBG G2A2 A4 :|

